content/pages/about/adamant-logo.svg

<svg width="111" height="20" xmlns="http://www.w3.org/2000/svg"><g fill="#FFF" fill-rule="evenodd"><path d="M16.026 13.015c0 1.356.32 2.446.957 3.27.64.798 1.463 1.197 2.473 1.197 1.01 0 1.835-.4 2.473-1.197.637-.824.956-1.914.956-3.27s-.32-2.446-.957-3.244c-.64-.823-1.463-1.222-2.474-1.222-1.01 0-1.834.4-2.473 1.223-.638.8-.957 1.89-.957 3.245l.002-.002zm3.108-6.911c.666 0 1.33.186 2.048.532.718.345 1.224.718 1.543 1.17V1.468h2.765v18.248h-2.765v-1.543c-.505.878-2.02 1.755-3.643 1.755-3.91 0-5.983-2.552-5.983-6.913 0-4.254 2.102-6.913 6.037-6.913l-.002.002zm22.718.211h2.766V8.6c1.09-1.674 2.42-2.498 4.04-2.498 1.81 0 3.298 1.09 3.697 2.765.93-1.78 2.446-2.765 4.175-2.765 2.42 0 3.828 1.595 3.828 4.015v9.6h-2.765v-8.99c0-1.408-.77-2.18-1.967-2.18-1.73 0-3.138 2.26-3.138 5.798v5.37h-2.765V10.73c0-1.41-.77-2.18-1.968-2.18-1.78 0-3.137 2.26-3.137 6.09v5.078h-2.766V6.315zm34.766 0h2.765V8.6c.957-1.594 2.553-2.498 4.334-2.498 2.367 0 3.935 1.462 3.935 4.015v9.6h-2.765v-8.723c0-1.622-.69-2.446-2.074-2.446-.93 0-1.728.532-2.42 1.57-.664 1.036-1.01 2.418-1.01 4.173v5.426h-2.765V6.315zM4.6 17.482c.93 0 1.756-.292 2.447-.877.718-.612 1.063-1.436 1.063-2.526v-.294H5.69c-1.7 0-2.764.798-2.764 2.074 0 .957.585 1.622 1.675 1.622l-.001.001zm.931-11.417c3.487 0 5.345 1.755 5.345 5.29v8.324h-2.34l-.266-1.755c-.93 1.303-2.314 1.967-4.15 1.967-2.365 0-4.12-1.41-4.12-4.068 0-2.738 2.313-4.387 5.796-4.387H8.11v-.585c-.007-1.556-1.238-2.32-2.754-2.31-1.01.006-1.986.492-2.35 1.788H.465c0-1.154 1.106-4.264 5.065-4.264h.001zm83.786 2.699V6.317h2.233V1.46l2.766.006v4.85h4.06l-1.41 2.448h-2.65v6.54c0 1.463.585 2.18 1.78 2.18.453 0 .878-.132 1.277-.372l.718 2.34c-.664.32-1.38.48-2.152.48-2.66 0-4.388-1.623-4.388-4.787v-6.38h-2.233l-.001-.001zm-56.759 8.763c.93 0 1.755-.292 2.446-.877.718-.612 1.063-1.436 1.063-2.526v-.293h-2.42c-1.7 0-2.765.8-2.765 2.075 0 .957.585 1.622 1.676 1.622v-.001zm.93-11.415c3.486 0 5.344 1.756 5.344 5.292v8.323h-2.34l-.266-1.755c-.93 1.303-2.313 1.967-4.148 1.967-2.366 0-4.12-1.41-4.12-4.068 0-2.74 2.312-4.388 5.795-4.388h2.314v-.585c-.007-1.556-1.238-2.32-2.754-2.31-1.01.006-1.986.492-2.35 1.788h-2.54c0-1.154 1.106-4.264 5.064-4.264h.001zm33.835 11.415c.93 0 1.755-.292 2.446-.877.717-.612 1.063-1.436 1.063-2.526v-.293h-2.42c-1.702 0-2.765.8-2.765 2.075 0 .957.585 1.622 1.675 1.622l.001-.001zm.929-11.415c3.486 0 5.344 1.756 5.344 5.292v8.323h-2.34l-.266-1.755c-.93 1.303-2.312 1.967-4.147 1.967-2.366 0-4.12-1.41-4.12-4.068 0-2.74 2.313-4.388 5.796-4.388h2.312v-.585c-.007-1.556-1.238-2.32-2.753-2.31-1.012.006-1.988.492-2.352 1.788h-2.54c0-1.154 1.106-4.264 5.065-4.264h.001zM107.31 2.575l-1.42-2.46-1.687 2.922-1.687 2.92-1.635 2.826h2.843zM108.725 5.037l-2.168 3.745h4.336z"/></g></svg>

<?xml version="1.0" encoding="UTF-8"?>
<svg width="111px" height="20px" viewBox="0 0 111 20" version="1.1" xmlns="http://www.w3.org/2000/svg" xmlns:xlink="http://www.w3.org/1999/xlink">
    <!-- Generator: Sketch 52.6 (67491) - http://www.bohemiancoding.com/sketch -->
    <title>Adamant-0</title>
    <desc>Created with Sketch.</desc>
    <g id="✔--About" stroke="none" stroke-width="1" fill="none" fill-rule="evenodd">
        <g id="About" transform="translate(-775.000000, -5080.000000)" fill="#FFFFFF">
            <g id="Network" transform="translate(301.000000, 4842.000000)">
                <g id="Adamant" transform="translate(442.000000, 192.000000)">
                    <g id="Content" transform="translate(32.000000, 46.000000)">
                        <g id="Adamant-0">
                            <path d="M16.026,13.015 C16.026,14.371 16.346,15.461 16.983,16.285 C17.623,17.083 18.446,17.482 19.456,17.482 C20.466,17.482 21.291,17.082 21.929,16.285 C22.566,15.461 22.885,14.371 22.885,13.015 C22.885,11.659 22.565,10.569 21.928,9.771 C21.288,8.948 20.465,8.549 19.454,8.549 C18.444,8.549 17.62,8.949 16.981,9.772 C16.343,10.572 16.024,11.662 16.024,13.017 L16.026,13.015 Z M19.134,6.104 C19.8,6.104 20.464,6.29 21.182,6.636 C21.9,6.981 22.406,7.354 22.725,7.806 L22.725,1.468 L25.49,1.468 L25.49,19.716 L22.725,19.716 L22.725,18.173 C22.22,19.051 20.705,19.928 19.082,19.928 C15.172,19.928 13.099,17.376 13.099,13.015 C13.099,8.761 15.201,6.102 19.136,6.102 L19.134,6.104 Z M41.852,6.315 L44.618,6.315 L44.618,8.6 C45.708,6.926 47.038,6.102 48.658,6.102 C50.468,6.102 51.956,7.192 52.355,8.867 C53.285,7.087 54.801,6.102 56.53,6.102 C58.95,6.102 60.358,7.697 60.358,10.117 L60.358,19.717 L57.593,19.717 L57.593,10.727 C57.593,9.319 56.823,8.547 55.626,8.547 C53.896,8.547 52.488,10.807 52.488,14.345 L52.488,19.715 L49.723,19.715 L49.723,10.73 C49.723,9.32 48.953,8.55 47.755,8.55 C45.975,8.55 44.618,10.81 44.618,14.64 L44.618,19.718 L41.852,19.718 L41.852,6.318 L41.852,6.315 Z M76.618,6.315 L79.383,6.315 L79.383,8.6 C80.34,7.006 81.936,6.102 83.717,6.102 C86.084,6.102 87.652,7.564 87.652,10.117 L87.652,19.717 L84.887,19.717 L84.887,10.994 C84.887,9.372 84.197,8.548 82.813,8.548 C81.883,8.548 81.085,9.08 80.393,10.118 C79.729,11.154 79.383,12.536 79.383,14.291 L79.383,19.717 L76.618,19.717 L76.618,6.317 L76.618,6.315 Z M4.6,17.482 C5.53,17.482 6.356,17.19 7.047,16.605 C7.765,15.993 8.11,15.169 8.11,14.079 L8.11,13.785 L5.69,13.785 C3.99,13.785 2.926,14.583 2.926,15.859 C2.926,16.816 3.511,17.481 4.601,17.481 L4.6,17.482 Z M5.531,6.065 C9.018,6.065 10.876,7.82 10.876,11.355 L10.876,19.679 L8.536,19.679 L8.27,17.924 C7.34,19.227 5.956,19.891 4.12,19.891 C1.755,19.891 0,18.481 0,15.823 C0,13.085 2.313,11.436 5.796,11.436 L8.11,11.436 L8.11,10.851 C8.103,9.295 6.872,8.531 5.356,8.541 C4.346,8.547 3.37,9.033 3.006,10.329 L0.465,10.329 C0.465,9.175 1.571,6.065 5.53,6.065 L5.531,6.065 Z M89.317,8.764 L89.317,6.317 L91.55,6.317 L91.55,1.46 L94.316,1.466 L94.316,6.316 L98.376,6.316 L96.966,8.764 L94.316,8.764 L94.316,15.304 C94.316,16.767 94.901,17.484 96.096,17.484 C96.549,17.484 96.974,17.352 97.373,17.112 L98.091,19.452 C97.427,19.772 96.711,19.932 95.939,19.932 C93.279,19.932 91.551,18.309 91.551,15.145 L91.551,8.765 L89.318,8.765 L89.317,8.764 Z M32.558,17.527 C33.488,17.527 34.313,17.235 35.004,16.65 C35.722,16.038 36.067,15.214 36.067,14.124 L36.067,13.831 L33.647,13.831 C31.947,13.831 30.882,14.631 30.882,15.906 C30.882,16.863 31.467,17.528 32.558,17.528 L32.558,17.527 Z M33.488,6.112 C36.974,6.112 38.832,7.868 38.832,11.404 L38.832,19.727 L36.492,19.727 L36.226,17.972 C35.296,19.275 33.913,19.939 32.078,19.939 C29.712,19.939 27.958,18.529 27.958,15.871 C27.958,13.131 30.27,11.483 33.753,11.483 L36.067,11.483 L36.067,10.898 C36.06,9.342 34.829,8.578 33.313,8.588 C32.303,8.594 31.327,9.08 30.963,10.376 L28.423,10.376 C28.423,9.222 29.529,6.112 33.487,6.112 L33.488,6.112 Z M67.323,17.527 C68.253,17.527 69.078,17.235 69.769,16.65 C70.486,16.038 70.832,15.214 70.832,14.124 L70.832,13.831 L68.412,13.831 C66.71,13.831 65.647,14.631 65.647,15.906 C65.647,16.863 66.232,17.528 67.322,17.528 L67.323,17.527 Z M68.252,6.112 C71.738,6.112 73.596,7.868 73.596,11.404 L73.596,19.727 L71.256,19.727 L70.99,17.972 C70.06,19.275 68.678,19.939 66.843,19.939 C64.477,19.939 62.723,18.529 62.723,15.871 C62.723,13.131 65.036,11.483 68.519,11.483 L70.831,11.483 L70.831,10.898 C70.824,9.342 69.593,8.578 68.078,8.588 C67.066,8.594 66.09,9.08 65.726,10.376 L63.186,10.376 C63.186,9.222 64.292,6.112 68.251,6.112 L68.252,6.112 Z" id="Shape"></path>
                            <polygon id="Path" points="107.31 2.575 105.89 0.115 104.203 3.037 102.516 5.957 100.881 8.783 103.724 8.783"></polygon>
                            <polygon id="Path" points="108.725 5.037 106.557 8.782 110.893 8.782"></polygon>
                        </g>
                    </g>
                </g>
            </g>
        </g>
    </g>
</svg>
